X:0
T:The Pentatonic Modes based on A
L:1/4
M:8/4
K:A
"^Lydian/Major/Mixolydian Pentatonic"  A2 Bc ef a2|a2 fe cB A2||
M:9/4
K:AMix
"^Major/Mixolydian/Dorian Pentatonic"  A2 Bd ef a2|a2 fe dB A2||
M:9/4
K:ADor
"^Mixolydian/Dorian/Minor Pentatonic"  A2 Bd eg a2|a2 ge dB A2||
M:9/4
K:AMin
"^Dorian/Minor/Phrygian Pentatonic"    A2 cd eg a2|a2 ge dc A2|]
